symbolic/22x22/places/user-blue-desktop.svg

<svg xmlns="http://www.w3.org/2000/svg" width="22" height="22" version="1.1">
 <rect style="opacity:0.2" width="20" height="18" x="1" y="2.5" rx="1" ry="1"/>
 <path style="fill:#5294e2" d="M 1,3.9 1,19 c 0,0.554 0.446,1 1,1 l 18,0 c 0.554,0 1,-0.446 1,-1 L 21,3.9 Z"/>
 <path style="fill:#1d344f" d="M 2,2 C 1.446,2 1,2.45 1,3 V 4 H 21 V 3 C 21,2.45 20.554,2 20,2 Z"/>
 <path style="fill:#1d344f" d="M 7,18 C 6.446,18 6,18.45 6,19 V 20 H 16 V 19 C 16,18.45 15.554,18 15,18 Z"/>
 <path style="opacity:0.1;fill:#ffffff" d="M 2,2 C 1.446,2 1,2.45 1,3 V 3.5 C 1,2.95 1.446,2.5 2,2.5 H 20 C 20.554,2.5 21,2.95 21,3.5 V 3 C 21,2.45 20.554,2 20,2 Z"/>
</svg>

<svg xmlns="http://www.w3.org/2000/svg" width="22" height="22"><rect style="opacity:.2" width="20" height="18" x="1" y="2.5" rx="1" ry="1"/><path style="fill:#5294e2" d="M1 3.9V19c0 .554.446 1 1 1h18c.554 0 1-.446 1-1V3.9z"/><path style="fill:#1d344f" d="M2 2a1 1 0 0 0-1 1v1h20V3a1 1 0 0 0-1-1zM7 18a1 1 0 0 0-1 1v1h10v-1a1 1 0 0 0-1-1z"/><path style="opacity:.1;fill:#fff" d="M2 2a1 1 0 0 0-1 1v.5a1 1 0 0 1 1-1h18a1 1 0 0 1 1 1V3a1 1 0 0 0-1-1z"/></svg>
